X:279
T: Hong xiu xie , cf. Dong fang Hong!)
N: C0505
O: China, Shaanxi, Nord
S: MM, vorhanden, handschriftlich), Original von Dong Fang Hong]
N: Saengerin: Huang Bai. Vorlaeufer von Dong fang hong.
N: Die 4 wird hoeher gesungen.  Glissandi. singt leichte Variante. Der 3.
N: Ton = +1. Einmal nach Gesang korrigiert.+++ Kommentar zu Dong fan hong: +++
N: Das Lied wurde vom Bauernsaenger Li You Yuan, 1903-1955) komponiert und
N: hatte 12 Strophen. Es hiess "Yi Mong Ge", Den Schimmel reiten) und war
N: ein Lied fuer Auswanderer. Der Komponist stammte aus Jia Xian in der
N: Provinz Shanxi. 1943 wurde das Lied dann umgeschrieben. Sein Neffe, Li
N: Zengzheng sang dieses neue Lied als erster. 1944 wurde es noch einmal
N: bearbeitet und in der Befreiungszeitund Jiefng Ribao gedruckt. Von
N: dort machte es dann den Siegeszug durch die VR., Bericht: Frau Loehr)
N: Hong shuang xie scheint also nur eine Variante, gefolgt von Qi bai ma.
R: Xiaodiao]
M: 2/4
L: 1/16
K: F
c2c4d2 | G6c2 | F2F2E2D2 | G8
c2B4c2 | d3fd2c2 | A2G2F2D2 | G8
c4G2A2 | F4E2D2 | C4c4 | G4
A2G2 | F4F2D2 | G2A2G2F2 | G2F2E2D2 | C8

